assets/images/bus-single.svg

<?xml version="1.0" encoding="UTF-8" standalone="no"?><!DOCTYPE svg PUBLIC "-//W3C//DTD SVG 1.1//EN" "http://www.w3.org/Graphics/SVG/1.1/DTD/svg11.dtd"><svg width="100%" height="100%" viewBox="0 0 16 7" version="1.1" xmlns="http://www.w3.org/2000/svg" xmlns:xlink="http://www.w3.org/1999/xlink" xml:space="preserve" xmlns:serif="http://www.serif.com/" style="fill-rule:evenodd;clip-rule:evenodd;stroke-linejoin:round;stroke-miterlimit:1.41421;"><path d="M15.5,6l-15,0c-0.276,0 -0.5,-0.224 -0.5,-0.5l0,-5c0,-0.276 0.224,-0.5 0.5,-0.5l15,0c0.276,0 0.5,0.224 0.5,0.5l0,5c0,0.276 -0.224,0.5 -0.5,0.5Zm-12.5,-3l0,-2l-1.701,0c-0.165,0 -0.299,0.134 -0.299,0.299l0,1.402c0,0.165 0.134,0.299 0.299,0.299l1.701,0Zm1,-2l0,2l2,0l0,-2l-2,0Zm3,0l0,2l2,0l0,-2l-2,0Zm3,0l0,2l2,0l0,-2l-2,0Zm4.701,0l-1.701,0l0,2l1.701,0c0.165,0 0.299,-0.134 0.299,-0.299l0,-1.402c0,-0.165 -0.134,-0.299 -0.299,-0.299Z" style="fill:#6a6a6a;"/><circle cx="2" cy="6" r="1" style="fill:#4a4a4a;"/><circle cx="12" cy="6" r="1" style="fill:#4a4a4a;"/></svg>

<svg xmlns="http://www.w3.org/2000/svg" viewBox="0 0 16 7">
  <path fill="#6a6a6a" d="M15.5 6H.5a.5.5 0 0 1-.5-.5v-5C0 .22.22 0 .5 0h15c.28 0 .5.22.5.5v5a.5.5 0 0 1-.5.5zM3 3V1H1.3a.3.3 0 0 0-.3.3v1.4c0 .17.13.3.3.3H3zm1-2v2h2V1H4zm3 0v2h2V1H7zm3 0v2h2V1h-2zm4.7 0H13v2h1.7a.3.3 0 0 0 .3-.3V1.3a.3.3 0 0 0-.3-.3z"/>
  <circle cx="2" cy="6" r="1" fill="#4a4a4a"/>
  <circle cx="12" cy="6" r="1" fill="#4a4a4a"/>
</svg>
